!!!COM: Palestrina, Giovanni Perluigi da
!!!OPR: Missa Io mi son giovinetta (1570)
!!!OMD: Gloria
!!!OTL: Domine
**kern	**kern	**kern
*Icalto	*Icant	*Icant
!Altus	!Cantus 2	!Cantus 1
*clefG2	*clefG2	*clefG2
*k[b-]	*k[b-]	*k[b-]
*G:dor	*G:dor	*G:dor
*M4/2	*M4/2	*M4/2
=53	=53	=53
1g	0r	0r
2g	.	.
2g	.	.
=54	=54	=54
1g	1dd	0r
2f	2dd	.
[2g	2dd	.
=55	=55	=55
2g]	1dd	0r
2f	.	.
2e	1cc	.
2e	.	.
=56	=56	=56
4d	1.dd	0r
4c	.	.
4d	.	.
4e	.	.
4f	.	.
4g	.	.
4a	2cc	.
4f	.	.
=57	=57	=57
1g	2b-	1dd
.	2b-	.
2d	2a	2dd
[2g	[2b-	2dd
=58	=58	=58
4g]	4b-]	1dd
4f	4a	.
2d	2f	.
2e	2g	1cc
2f	2a	.
=59	=59	=59
2.B-	2.b-	1.dd
4c	4a	.
4d	4f	.
4e	4g	.
2f	[2a	2cc
=60	=60	=60
1g	4a]	2b-
.	4g	.
.	1g	2b-
1d	.	2a
.	2f#	2dd
=61	=61	=61
2r	1g	2dd
2g	.	2dd
2g	2r	1dd
2g	2dd	.
=62	=62	=62
1g	2dd	2.b-
.	2dd	.
.	.	4g
2f#	1dd	2a
[2g	.	2b-
=63	=63	=63
2g]	2b-	2g
2f	2.cc	2.a
2e-	.	.
.	4b-	4g
2e-	2g	[2g
=64	=64	=64
1d	2a	2g]
.	2a	2f#
[1g	1g	1g
=65	=65	=65
1g]	1.dd	1.b-
1r	.	.
.	2cc	2a
=66	=66	=66
1r	2b-	2g
.	2a	2f
2r	[1g	2.b-
[2b-	.	.
.	.	4cc
=67	=67	=67
2b-]	2g]	1dd
2a	2f	.
2g	2b-	2r
2f	2a	[2dd
=68	=68	=68
1e	1g	2dd]
.	.	2cc
1d	1r	2b-
.	.	2a
=69	=69	=69
1.b-	2r	4g
.	.	4a
.	1dd	4b-
.	.	4cc
.	.	4dd
.	.	4ee
2a	2cc	4ff
.	.	4ee
=70	=70	=70
2g	2b-	4ee
.	.	4dd
2f	2a	1dd
1e	2.g	.
.	.	2cc#
.	4a	.
=71	=71	=71
1.d	4b-	1.dd
.	4cc	.
.	4dd	.
.	4ee	.
.	2ff	.
2e	[2ee	4cc
.	.	4b-
=72	=72	=72
2f	4ee]	2a
.	4dd	.
2g	1dd	2b-
1e	.	2.g
.	2cc#	.
.	.	4a
=73	=73	=73
1d	[0dd	2b-
.	.	2a
2r	.	4g
.	.	4f
2g	.	2b-
=74	=74	=74
2g	0dd]	1a
2f	.	.
1b-	.	2r
.	.	2dd
=75	=75	=75
1a	0r	2dd
.	.	2cc
2r	.	1ff
2a	.	.
=76	=76	=76
2g	0r	1ee
2.a	.	.
.	.	2r
4g	.	.
4f	.	2dd
4d	.	.
=77	=77	=77
2e	0r	2cc
2d	.	2.dd
2r	.	.
.	.	4cc
2g	.	4b-
.	.	4g
=78	=78	=78
2f	2r	2a
2.g	2dd	4g
.	.	4a
.	2dd	4b-
4f	.	4a
4e	2cc	[2cc
4c	.	.
=79	=79	=79
1d	1ff	2cc]
.	.	2b
2c	1ee	1cc
[2cc	.	.
=80	=80	=80
2cc]	2r	1g
2b-	2dd	.
2a	2cc	1r
2b-	[2dd	.
=81	=81	=81
1g	4dd]	2r
.	4cc	.
.	4b-	2dd
.	4g	.
1r	2a	2cc
.	2g	[2dd
=82	=82	=82
1g	2.b-	4dd]
.	.	4cc
.	.	4b-
.	4cc	4g
2f	1dd	2a
[2g	.	4g
.	.	4a
=83	=83	=83
4g]	1r	4b-
4f	.	4a
4e	.	2.cc
4c	.	.
2.d	2r	.
.	.	4b-
.	2dd	2b-
4e	.	.
=84	=84	=84
2f	2cc	2a
2B-	2.dd	2.b-
1e-	.	.
.	4cc	4a
.	4b-	[2g
.	4g	.
=85	=85	=85
1d	1a	2g]
.	.	2f#
2r	2g	1g
[2g	2dd	.
=86	=86	=86
2g]	2b-	0r
2e	2cc	.
2f	2.dd	.
[2g	.	.
.	4cc	.
=87	=87	=87
4g]	2b-	1dd
4f	.	.
2d	2a	.
1e-	1g	2b-
.	.	2cc
=88	=88	=88
1B-	2f	2.dd
.	4b-	.
.	4cc	4cc
2r	4dd	2b-
.	4ee	.
2d	[2ff	2a
=89	=89	=89
2B-	2ff]	1g
2c	2ee	.
1d	1ff	[1f
=90	=90	=90
2.B-	2r	1f]
.	2dd	.
4c	.	.
2d	2b-	1r
2e	2cc	.
=91	=91	=91
2f	2.dd	1r
2.g	.	.
.	4cc	.
.	2b-	1dd
4f	.	.
2d	[2a	.
=92	=92	=92
1e-	4a]	2b-
.	4g	.
.	1g	2cc
1d	.	2.dd
.	2f#	.
.	.	4cc
=93	=93	=93
2r	2g	2b-
2d	2f	2.a
2.B-	1b-	.
.	.	4g
.	.	[2g
4c	.	.
=94	=94	=94
1d	1a	2g]
.	.	2f#
1G	1g	2g
.	.	2dd
=95	=95	=95
2r	1dd	2.b-
2.g	.	.
.	.	4cc
.	2b-	2dd
4f	.	.
4e-	[2cc	[2ee-
4d	.	.
=96	=96	=96
2c	2cc]	2ee-]
2B	2dd	2dd
1c	1ee-	1cc
=97	=97	=97
0g	0dd	0b
*-	*-	*-
!!!CDT: 1525/^1526/-1594/2/2
!!!OCY: Italia
!!!AGN: Mass (Parody)
!!!AST: renaissance, vocal
!!!ASW: Madrigal 1542 (Ferabosco)
!!!PWK: Masses, Book 3
!!!RNB: Cadence finals: A
!!!YOR: Le Opere Complete, v. 6, p. 30
!!!YOO: Rome, Italy: Fratelli Scalera
!!!END: 1992//
!!!EED: John Miller
!!!YEC: Copyright 2000, John Miller
!!!YEN: United States of America
!!!YEM: Rights to all derivative electronic formats reserved.
!!!YEM: Refer to licensing agreement for further details.
!!!YEM: This file must be accompanied by the licensing agreement.
!!!YEM: A copy of the licensing agreement may be found at http://www.music-cog.ohio-state.edu/HumdrumDatabases/Palestrina/license.txt
!!!EMD: converted to Humdrum by Bret Aarden
